X:54
T:Smoky Chimney
Z: id:dc-hornpipe-49
M:C|
L:1/8
K:D Major
(3ABc|dcde fdAF|GFGA BGE2|efge cdec|defd A2 (3ABc|!
dcde fdAF|GFGA BGE2|efge cABc|dfec d2:|!
de|fefg afdf|gfga bge2|fgaf defd|(3efe (3dcB A2de|!
fefg afdf|gfga bge2|afge fdec|dfec d2:|!

